img/footer-image-item-03.svg

<svg width="248" height="194" viewBox="0 0 248 194" fill="none" xmlns="http://www.w3.org/2000/svg">
<g clip-path="url(#clip0)">
<path d="M96.101 34.2114C103.119 35.0735 110.259 36.0018 116.766 38.8925C125.291 42.6994 131.934 49.6137 138.367 56.3319L162.807 81.9765C170.532 90.0855 178.777 98.5276 189.482 101.944C197.818 104.594 206.728 103.875 215.394 104.843C225.594 105.99 235.464 109.484 244.183 115.034C229.046 125.371 218.629 140.977 214.957 158.821C214.802 159.592 214.61 160.412 214.032 160.937C212.695 162.093 210.552 160.842 209.24 159.553C199.383 149.849 193.941 135.034 181.047 129.891C174.097 127.121 166.384 127.863 159.096 128.954C146.964 130.795 134.908 133.518 122.546 133.399C113.716 133.315 104.919 131.777 96.1753 130.243C89.1814 129.015 82.0645 127.749 75.7383 124.465C68.9589 120.942 63.5259 115.325 58.3633 109.728C46.3403 96.6815 34.592 82.4611 30.153 65.6691C27.5549 55.7914 27.6361 45.5532 27.7299 35.453C27.8497 22.4319 45.6606 28.0353 54.4445 29.1146L96.101 34.2114Z" fill="#255776"/>
</g>
<defs>
<clipPath id="clip0">
<rect width="230.097" height="95.3308" fill="white" transform="translate(45.1865) rotate(28.2943)"/>
</clipPath>
</defs>
</svg>

<svg width="248" height="194" fill="none" xmlns="http://www.w3.org/2000/svg"><g clip-path="url(#clip0)"><path d="M96.101 34.211c7.018.863 14.158 1.79 20.665 4.681 8.525 3.807 15.168 10.722 21.601 17.44l24.44 25.645c7.725 8.108 15.97 16.55 26.675 19.967 8.336 2.65 17.246 1.931 25.912 2.899 10.2 1.147 20.07 4.641 28.789 10.191-15.137 10.337-25.554 25.943-29.226 43.787-.155.771-.347 1.591-.925 2.116-1.337 1.156-3.48-.095-4.792-1.384-9.857-9.704-15.299-24.519-28.193-29.662-6.95-2.77-14.663-2.028-21.951-.937-12.132 1.841-24.188 4.564-36.55 4.445-8.83-.084-17.627-1.622-26.37-3.156-6.995-1.228-14.112-2.494-20.438-5.778-6.78-3.523-12.212-9.14-17.375-14.737-12.023-13.046-23.771-27.267-28.21-44.059-2.598-9.878-2.517-20.116-2.423-30.216.12-13.021 17.93-7.418 26.714-6.338l41.657 5.096z" fill="#255776"/></g><defs><clipPath id="clip0"><path fill="#fff" transform="rotate(28.294 22.593 89.635)" d="M0 0h230.097v95.331H0z"/></clipPath></defs></svg>
